X:115
T:Astleys Hornpipe
R:Hornpipe
M:4/4
L:1/8
K:G
GABc dBGd | gfge edcB | cecA BdBG | ABcA GFED |
GABc dBGd | gfge edcB | cecA BdBG | G2F2 G4 :|
|:defg afdf | gbge fafe | defg afdB | cecA BdBA |
GABc dBGd | gfge edcB | cecA BdBG | G2F2 G4 :|
%%vskip .5cm
